X:40
T:Silver Spear
M:2/2
L:1/8
K:D
AG|FA "^"A2 BAFA|dfed BcdA|FA "^"A2 BAFA|dfed "^"B2 AG|
FA "^"A2 BAFA|dfed Bdef|gfge f3 e|1dfed "^"B2 AG|2dfed Bcde||:
"^"f2 af bfaf|gfed Bcde|"^"f2 af bfaf|gfed "^"B2 A2|
"^"f2 af bfaf|gfed Bdef|gfge f3 e|dfed B2 A2:||
